img/footer-logo.svg

<svg width="172" height="39" viewBox="0 0 172 39" fill="none" xmlns="http://www.w3.org/2000/svg">
<path d="M4.56543 20.6304C6.06852 22.2474 10.5049 25.4995 16.2257 25.5724C21.9465 25.6453 26.0184 22.3081 27.3393 20.6304" stroke="white" stroke-width="1.18524" stroke-linecap="square" stroke-linejoin="round"/>
<path d="M19.2821 12.4623C19.2821 14.2481 17.8345 15.6957 16.0487 15.6957C14.263 15.6957 12.8154 14.2481 12.8154 12.4623C12.8154 10.6766 14.263 9.229 16.0487 9.229C17.8345 9.229 19.2821 10.6766 19.2821 12.4623Z" stroke="white" stroke-width="1.18524" stroke-linecap="square" stroke-linejoin="round"/>
<path d="M10.168 19.2998H21.6223" stroke="white" stroke-width="1.18524" stroke-linecap="square" stroke-linejoin="round"/>
<path d="M10.168 29.4639H21.6223" stroke="white" stroke-width="1.18524" stroke-linecap="square" stroke-linejoin="round"/>
<path d="M42.1062 10.0609C41.5527 10.0609 41.2187 10.2518 41.1042 10.6335C40.9897 11.0152 41.066 11.4255 41.3332 11.8644L46.7725 21.1398L52.4121 11.7499C52.5457 11.54 52.6412 11.3396 52.6984 11.1487C52.7557 10.9388 52.7652 10.7575 52.7271 10.6048C52.708 10.4331 52.6316 10.2995 52.498 10.2041C52.3835 10.1086 52.2022 10.0609 51.9541 10.0609V9.88916H54.9314V10.0609C54.6069 10.0609 54.292 10.2613 53.9867 10.6621C53.6813 11.0438 53.3759 11.4827 53.0706 11.979L47.2305 21.6837V28.0677C47.2305 28.6403 47.2782 29.0792 47.3737 29.3846C47.4691 29.69 47.7649 29.8426 48.2611 29.8426V29.9285H43.9097V29.8426C44.4059 29.8426 44.7017 29.69 44.7972 29.3846C44.8926 29.0792 44.9403 28.6403 44.9403 28.0677V21.9987L38.9571 11.8931C38.6327 11.3778 38.3178 10.9484 38.0124 10.6048C37.7261 10.2422 37.4017 10.0609 37.0391 10.0609V9.88916H42.1062V10.0609ZM59.9658 14.8131C60.9392 14.8131 61.8457 15.0135 62.6855 15.4143C63.5252 15.796 64.2505 16.3304 64.8612 17.0174C65.491 17.7045 65.9777 18.5252 66.3212 19.4794C66.6647 20.4146 66.8365 21.4356 66.8365 22.5426C66.8365 23.6304 66.6647 24.6419 66.3212 25.5771C65.9777 26.4932 65.5005 27.2948 64.8898 27.9818C64.2982 28.6498 63.5825 29.1747 62.7427 29.5564C61.9221 29.919 61.0155 30.1003 60.0231 30.1003C59.0307 30.1003 58.105 29.9094 57.2462 29.5277C56.4065 29.146 55.6812 28.6212 55.0705 27.9532C54.4598 27.2662 53.9826 26.4646 53.6391 25.5485C53.2956 24.6133 53.1238 23.5923 53.1238 22.4853C53.1238 21.3784 53.2956 20.3573 53.6391 19.4222C53.9826 18.487 54.4598 17.6759 55.0705 16.9888C55.6812 16.3017 56.3969 15.7674 57.2176 15.3856C58.0573 15.0039 58.9734 14.8131 59.9658 14.8131ZM59.9945 15.357C59.2883 15.357 58.649 15.5288 58.0764 15.8723C57.5229 16.1968 57.0458 16.6644 56.645 17.2751C56.2442 17.8858 55.9389 18.6301 55.7289 19.508C55.519 20.3669 55.414 21.3402 55.414 22.4281C55.414 23.5159 55.519 24.4988 55.7289 25.3767C55.958 26.2546 56.2729 27.0085 56.6737 27.6383C57.0744 28.249 57.5516 28.7262 58.105 29.0697C58.6776 29.3941 59.3169 29.5564 60.0231 29.5564C60.7102 29.5564 61.3304 29.3941 61.8839 29.0697C62.4564 28.7262 62.9336 28.249 63.3153 27.6383C63.7161 27.0276 64.0214 26.2928 64.2314 25.434C64.4413 24.5561 64.5463 23.5732 64.5463 22.4853C64.5463 21.3975 64.4413 20.4146 64.2314 19.5367C64.0214 18.6588 63.7161 17.9144 63.3153 17.3037C62.9145 16.6739 62.4278 16.1968 61.8553 15.8723C61.3018 15.5288 60.6815 15.357 59.9945 15.357ZM75.1716 14.8131C75.8205 14.8131 76.4408 14.899 77.0324 15.0707C77.6241 15.2234 78.168 15.4524 78.6642 15.7578L82.0423 14.7845L82.0995 14.8417V16.3876H82.0423L78.9791 15.9582C79.6471 16.4162 80.1719 16.9697 80.5536 17.6186C80.9544 18.2675 81.1548 18.9927 81.1548 19.7943C81.1548 20.4814 81.0021 21.1112 80.6968 21.6837C80.3914 22.2563 79.9715 22.7621 79.4372 23.201C78.9028 23.6209 78.2825 23.9549 77.5764 24.203C76.8702 24.432 76.1163 24.5465 75.3148 24.5465C73.9216 24.5465 72.6906 24.203 71.6218 23.5159C71.2783 23.8022 71.0015 24.1076 70.7916 24.432C70.5817 24.7374 70.4767 25.0236 70.4767 25.2908C70.4767 26.0542 71.5168 26.4932 73.5971 26.6077L77.9199 26.8654C80.7063 27.0371 82.0995 28.1536 82.0995 30.2148C82.0995 31.0164 81.8991 31.7512 81.4984 32.4191C81.1167 33.1062 80.5823 33.6978 79.8952 34.1941C79.2272 34.6903 78.4256 35.072 77.4905 35.3392C76.5744 35.6254 75.5724 35.7686 74.4846 35.7686C73.6257 35.7686 72.8242 35.6732 72.0798 35.4823C71.3355 35.3105 70.6962 35.0529 70.1618 34.7094C69.6274 34.3658 69.2075 33.9555 68.9022 33.4784C68.5968 33.0012 68.4441 32.4669 68.4441 31.8752C68.4441 30.4629 69.3316 29.2987 71.1065 28.3826C70.4576 28.1727 69.9423 27.8769 69.5606 27.4952C69.1789 27.1135 68.988 26.665 68.988 26.1497C68.988 25.6916 69.1598 25.224 69.5033 24.7469C69.866 24.2698 70.4385 23.764 71.221 23.2296C70.6485 22.7907 70.1904 22.2658 69.8469 21.6551C69.5224 21.0444 69.3602 20.3764 69.3602 19.6512C69.3602 18.9641 69.5129 18.3248 69.8182 17.7331C70.1236 17.1415 70.5435 16.6357 71.0779 16.2159C71.6122 15.7769 72.223 15.4334 72.91 15.1853C73.6162 14.9371 74.3701 14.8131 75.1716 14.8131ZM75.2289 15.357C74.1219 15.357 73.2249 15.7387 72.5379 16.5021C71.8699 17.2465 71.5359 18.3057 71.5359 19.6798C71.5359 21.073 71.8794 22.1418 72.5665 22.8861C73.2536 23.6304 74.1601 24.0026 75.2861 24.0026C76.4122 24.0026 77.3092 23.64 77.9771 22.9147C78.6451 22.1895 78.9791 21.1398 78.9791 19.7657C78.9791 18.3725 78.6356 17.2942 77.9485 16.5308C77.2615 15.7483 76.3549 15.357 75.2289 15.357ZM71.6504 28.5258C70.5053 29.3464 69.9328 30.3198 69.9328 31.4458C69.9328 31.9993 70.0664 32.505 70.3335 32.9631C70.6007 33.4402 70.9634 33.841 71.4214 34.1654C71.8794 34.4899 72.4138 34.738 73.0246 34.9098C73.6544 35.1006 74.3223 35.196 75.0285 35.196C75.811 35.196 76.5362 35.0911 77.2042 34.8811C77.8913 34.6712 78.4829 34.3754 78.9791 33.9937C79.4944 33.631 79.8952 33.2016 80.1815 32.7054C80.4868 32.2092 80.6395 31.6844 80.6395 31.1309C80.6395 30.4629 80.42 29.9572 79.9811 29.6136C79.5421 29.2701 78.8455 29.0697 77.8913 29.0124L72.8242 28.6975C72.3852 28.6594 71.994 28.6021 71.6504 28.5258ZM91.0012 14.8131C92.6998 14.8131 93.9403 15.2902 94.7228 16.2445C95.5053 17.1987 95.8965 18.716 95.8965 20.7963V28.2109C95.8965 28.8216 95.9633 29.2319 96.0969 29.4419C96.2305 29.6518 96.4595 29.7568 96.784 29.7568V29.9285H93.8067V26.1497C93.1387 27.3711 92.3085 28.3349 91.3161 29.0411C90.3237 29.7472 89.2644 30.1003 88.1384 30.1003C87.5468 30.1003 87.0029 30.0049 86.5066 29.814C86.0104 29.6041 85.5715 29.3273 85.1898 28.9838C84.8271 28.6212 84.5409 28.2013 84.3309 27.7242C84.121 27.2471 84.016 26.7318 84.016 26.1783C84.016 24.7087 84.8081 23.411 86.3921 22.2849C87.9762 21.1398 90.4096 20.3001 93.6922 19.7657C93.6349 18.258 93.3391 17.151 92.8047 16.4449C92.2704 15.7387 91.4688 15.3856 90.4 15.3856C89.3122 15.3856 88.3197 15.7387 87.4227 16.4449C86.5448 17.151 85.8291 18.1625 85.2756 19.4794H85.1039V17.1892C85.7719 16.4449 86.6211 15.8628 87.6517 15.4429C88.7014 15.023 89.8179 14.8131 91.0012 14.8131ZM93.6922 20.3955C91.1539 20.8345 89.2835 21.5597 88.0812 22.5712C86.8979 23.5636 86.3062 24.7374 86.3062 26.0924C86.3062 27.0085 86.5353 27.7242 86.9933 28.2395C87.4704 28.7357 88.1002 28.9838 88.8827 28.9838C89.8179 28.9838 90.7149 28.6403 91.5737 27.9532C92.4326 27.2662 93.1387 26.331 93.6922 25.1477V20.3955ZM98.893 26.6077C99.4465 27.562 100.134 28.2968 100.955 28.812C101.775 29.3083 102.749 29.5564 103.875 29.5564C105.077 29.5564 106.041 29.2892 106.766 28.7548C107.51 28.2204 107.883 27.5238 107.883 26.665C107.883 25.997 107.654 25.4531 107.195 25.0332C106.757 24.6133 106.203 24.2412 105.535 23.9167C104.867 23.5923 104.142 23.2869 103.359 23.0006C102.596 22.7143 101.88 22.3804 101.212 21.9987C100.544 21.6169 99.9809 21.1589 99.5229 20.6245C99.0839 20.0901 98.8644 19.4126 98.8644 18.592C98.8644 17.4468 99.3034 16.5308 100.182 15.8437C101.079 15.1566 102.252 14.8131 103.703 14.8131C105.573 14.8131 107.129 15.3761 108.369 16.5021V18.3057H108.197C107.568 17.2751 106.909 16.5308 106.222 16.0727C105.535 15.5956 104.743 15.357 103.846 15.357C103.369 15.357 102.911 15.4238 102.472 15.5574C102.052 15.6719 101.68 15.8437 101.355 16.0727C101.05 16.2827 100.802 16.5403 100.611 16.8457C100.439 17.151 100.353 17.4755 100.353 17.819C100.353 18.3916 100.573 18.8687 101.012 19.2504C101.47 19.613 102.023 19.947 102.672 20.2524C103.34 20.5386 104.066 20.8249 104.848 21.1112C105.631 21.3975 106.346 21.741 106.995 22.1418C107.663 22.5426 108.217 23.0388 108.655 23.6304C109.114 24.203 109.343 24.9282 109.343 25.8061C109.343 26.4741 109.209 27.0753 108.942 27.6097C108.675 28.125 108.293 28.5735 107.797 28.9552C107.32 29.3178 106.737 29.6041 106.05 29.814C105.382 30.0049 104.648 30.1003 103.846 30.1003C102.796 30.1003 101.842 29.9572 100.983 29.6709C100.144 29.3655 99.3893 29.0506 98.7213 28.7262V26.6077H98.893ZM110.659 14.9849H112.091V12.5801L114.295 12.208V14.9849H119.877V15.6147H114.295V25.9206C114.295 27.0467 114.457 27.8673 114.782 28.3826C115.106 28.8788 115.621 29.127 116.328 29.127C116.957 29.127 117.654 28.9361 118.417 28.5544C119.181 28.1727 119.839 27.6192 120.393 26.894L120.536 26.9799C119.811 27.9341 118.98 28.6975 118.045 29.2701C117.11 29.8236 116.203 30.1003 115.326 30.1003C114.314 30.1003 113.522 29.7281 112.949 28.9838C112.377 28.2395 112.091 27.2089 112.091 25.892V15.6147H110.659V14.9849ZM121.847 11.435C121.847 10.9961 121.99 10.643 122.276 10.3758C122.562 10.1086 122.944 9.97504 123.421 9.97504C123.879 9.97504 124.242 10.1086 124.509 10.3758C124.795 10.643 124.938 10.9961 124.938 11.435C124.938 11.874 124.795 12.2271 124.509 12.4942C124.242 12.7614 123.87 12.895 123.393 12.895C122.915 12.895 122.534 12.7614 122.247 12.4942C121.98 12.2271 121.847 11.874 121.847 11.435ZM122.305 16.7025C122.305 16.13 122.238 15.7292 122.104 15.5002C121.99 15.2711 121.761 15.1566 121.417 15.1566V14.9849H124.509V28.2109C124.509 28.7834 124.566 29.1842 124.681 29.4132C124.814 29.6423 125.053 29.7568 125.396 29.7568V29.9285H121.417V29.7568C121.761 29.7568 121.99 29.6423 122.104 29.4132C122.238 29.1842 122.305 28.7834 122.305 28.2109V16.7025ZM134.701 15.3856C133.975 15.3856 133.317 15.5479 132.725 15.8723C132.134 16.1968 131.628 16.6548 131.208 17.2465C130.788 17.819 130.464 18.5252 130.235 19.3649C130.006 20.2046 129.891 21.1398 129.891 22.1704C129.891 23.2201 130.015 24.1839 130.263 25.0618C130.511 25.9206 130.855 26.6554 131.294 27.2662C131.752 27.8578 132.296 28.3254 132.926 28.6689C133.556 28.9934 134.262 29.1556 135.044 29.1556C135.674 29.1556 136.275 29.0506 136.848 28.8407C137.42 28.6117 137.936 28.3063 138.394 27.9246C138.871 27.5238 139.272 27.0467 139.596 26.4932C139.94 25.9397 140.188 25.329 140.34 24.661L140.512 24.6897C140.321 25.5103 140.025 26.2546 139.625 26.9226C139.243 27.5906 138.775 28.1632 138.222 28.6403C137.688 29.0983 137.077 29.4609 136.39 29.7281C135.722 29.9762 134.997 30.1003 134.214 30.1003C133.26 30.1003 132.372 29.9094 131.552 29.5277C130.75 29.146 130.053 28.6117 129.462 27.9246C128.889 27.2375 128.431 26.4264 128.088 25.4912C127.763 24.5561 127.601 23.535 127.601 22.4281C127.601 21.302 127.763 20.281 128.088 19.3649C128.431 18.4297 128.899 17.6282 129.49 16.9602C130.101 16.2731 130.817 15.7483 131.638 15.3856C132.477 15.0039 133.384 14.8131 134.357 14.8131C135.369 14.8131 136.313 15.0135 137.191 15.4143C138.069 15.8151 138.871 16.4067 139.596 17.1892V19.4794H139.424C138.833 18.0862 138.155 17.0556 137.392 16.3876C136.628 15.7196 135.731 15.3856 134.701 15.3856ZM152.565 10.0609C152.069 10.0609 151.792 10.2613 151.735 10.6621C151.697 11.0629 151.84 11.4923 152.164 11.9503L156.63 18.5633L161.583 11.7499C161.735 11.54 161.84 11.3301 161.898 11.1201C161.974 10.9102 161.993 10.7289 161.955 10.5762C161.936 10.4235 161.85 10.2995 161.697 10.2041C161.545 10.1086 161.316 10.0609 161.01 10.0609V9.88916H164.302V10.0609C163.978 10.0609 163.654 10.2422 163.329 10.6048C163.005 10.9675 162.661 11.4064 162.298 11.9217L157.06 19.1645L163.272 28.3254C163.501 28.6498 163.778 28.9743 164.102 29.2987C164.426 29.6041 164.808 29.7568 165.247 29.7568V29.9285H160.037V29.7568C160.571 29.7568 160.867 29.5564 160.924 29.1556C160.982 28.7548 160.848 28.3254 160.524 27.8673L155.685 20.7677L150.475 28.0677C150.323 28.2777 150.208 28.4876 150.132 28.6975C150.055 28.8884 150.027 29.0697 150.046 29.2415C150.084 29.3941 150.179 29.5182 150.332 29.6136C150.485 29.7091 150.714 29.7568 151.019 29.7568V29.9285H147.727V29.7568C148.051 29.7568 148.376 29.5755 148.7 29.2128C149.025 28.8502 149.378 28.4113 149.76 27.896L155.285 20.1665L149.416 11.4923C149.187 11.1678 148.91 10.853 148.586 10.5476C148.261 10.2232 147.88 10.0609 147.441 10.0609V9.88916H152.565V10.0609Z" fill="white"/>
</svg>

<svg xmlns="http://www.w3.org/2000/svg" width="172" height="39" fill="none"><path stroke="#fff" stroke-linecap="square" stroke-linejoin="round" stroke-width="1.185" d="M4.565 20.63c1.504 1.617 5.94 4.87 11.66 4.942 5.721.073 9.793-3.264 11.114-4.942M19.282 12.462a3.233 3.233 0 1 1-6.467 0 3.233 3.233 0 0 1 6.467 0ZM10.168 19.3h11.454M10.168 29.464h11.454"/><path fill="#fff" d="M42.106 10.06q-.83 0-1.002.573t.23 1.231l5.438 9.276 5.64-9.39q.201-.315.286-.601.086-.315.03-.544a.54.54 0 0 0-.23-.4q-.172-.144-.544-.144v-.172h2.977v.172q-.486 0-.944.601-.459.572-.916 1.317l-5.84 9.705v6.384q0 .858.143 1.317.142.458.887.458v.085H43.91v-.085q.744 0 .887-.458.143-.459.143-1.317v-6.07l-5.983-10.105a10 10 0 0 0-.945-1.288q-.429-.544-.973-.544v-.172h5.067zm17.86 4.753q1.46 0 2.72.601a6.45 6.45 0 0 1 2.175 1.603q.945 1.031 1.46 2.462.516 1.404.516 3.064 0 1.631-.516 3.034a7.6 7.6 0 0 1-1.431 2.405 6.3 6.3 0 0 1-2.147 1.574q-1.23.544-2.72.544a6.8 6.8 0 0 1-2.777-.572 6.6 6.6 0 0 1-2.175-1.575 7.6 7.6 0 0 1-1.432-2.404q-.515-1.404-.515-3.064t.515-3.063a7.5 7.5 0 0 1 1.431-2.433 6.5 6.5 0 0 1 2.148-1.603q1.26-.573 2.748-.573m.029.544q-1.06 0-1.919.515-.83.487-1.431 1.403-.6.916-.916 2.233-.315 1.288-.315 2.92t.315 2.949q.343 1.317.945 2.261.6.916 1.431 1.432a3.8 3.8 0 0 0 1.918.486q1.03 0 1.86-.486a4.3 4.3 0 0 0 1.432-1.432q.601-.915.916-2.204.315-1.316.315-2.949 0-1.63-.315-2.948-.315-1.317-.916-2.233-.6-.945-1.46-1.432a3.46 3.46 0 0 0-1.86-.515m15.177-.544q.973 0 1.86.258a5.9 5.9 0 0 1 1.632.687l3.378-.973.058.057v1.546h-.058l-3.063-.43a5.2 5.2 0 0 1 1.575 1.66q.6.975.6 2.176 0 1.03-.457 1.89a5 5 0 0 1-1.26 1.517 6.4 6.4 0 0 1-1.86 1.002 7.3 7.3 0 0 1-2.262.344q-2.09 0-3.693-1.031-.516.43-.83.916-.315.458-.315.859 0 1.145 3.12 1.317l4.323.257q4.18.258 4.18 3.35 0 1.202-.602 2.204a5.44 5.44 0 0 1-1.603 1.775q-1.002.744-2.404 1.145-1.376.43-3.006.43-1.289 0-2.405-.287-1.117-.258-1.918-.773a4.1 4.1 0 0 1-1.26-1.23 2.9 2.9 0 0 1-.458-1.604q0-2.118 2.662-3.492-.973-.315-1.545-.888-.573-.573-.573-1.345 0-.687.515-1.403.545-.716 1.718-1.517a5.15 5.15 0 0 1-1.374-1.575 4.2 4.2 0 0 1-.487-2.004q0-1.03.458-1.918a4.6 4.6 0 0 1 1.26-1.517 6.2 6.2 0 0 1 1.832-1.03 6.8 6.8 0 0 1 2.262-.373m.057.544q-1.66 0-2.691 1.145-1.002 1.117-1.002 3.178 0 2.09 1.03 3.206t2.72 1.117 2.691-1.088 1.002-3.15q0-2.089-1.03-3.234-1.03-1.174-2.72-1.174M71.65 28.526q-1.717 1.23-1.717 2.92 0 .83.4 1.517.401.716 1.088 1.202.687.487 1.604.745.944.286 2.003.286a7.2 7.2 0 0 0 2.176-.315q1.03-.315 1.775-.887a4.05 4.05 0 0 0 1.203-1.289 2.96 2.96 0 0 0 .457-1.574q0-1.002-.658-1.517-.658-.516-2.09-.602l-5.067-.314a9 9 0 0 1-1.174-.172m19.351-13.713q2.549 0 3.722 1.431t1.174 4.552v7.415q0 .915.2 1.23.201.315.687.316v.171h-2.977V26.15q-1.003 1.832-2.49 2.891-1.49 1.06-3.179 1.06a4.5 4.5 0 0 1-1.631-.287 4.7 4.7 0 0 1-1.317-.83 4.1 4.1 0 0 1-.86-1.26 3.8 3.8 0 0 1-.314-1.546q0-2.204 2.376-3.893 2.377-1.718 7.3-2.52-.086-2.26-.887-3.32-.802-1.06-2.405-1.06-1.632 0-2.977 1.06-1.317 1.06-2.147 3.034h-.172v-2.29q1.002-1.116 2.548-1.746a8.9 8.9 0 0 1 3.35-.63m2.691 5.582q-3.807.66-5.61 2.176-1.776 1.489-1.776 3.521 0 1.375.687 2.148.715.744 1.89.744 1.403 0 2.69-1.03 1.29-1.032 2.12-2.806zm5.201 6.213q.83 1.431 2.062 2.204 1.23.744 2.92.744 1.803 0 2.891-.801 1.116-.802 1.117-2.09 0-1.002-.688-1.632-.657-.63-1.66-1.116a23 23 0 0 0-2.176-.916 15 15 0 0 1-2.147-1.002 6.3 6.3 0 0 1-1.69-1.374q-.658-.802-.658-2.033 0-1.718 1.318-2.748 1.345-1.03 3.521-1.03 2.806 0 4.666 1.688v1.804h-.172q-.944-1.546-1.975-2.233-1.03-.716-2.376-.716-.716 0-1.374.2-.63.173-1.117.516-.458.314-.744.773-.258.458-.258.973 0 .86.659 1.431a8.5 8.5 0 0 0 1.66 1.002q1.002.43 2.176.86 1.174.429 2.147 1.03a5.7 5.7 0 0 1 1.66 1.488q.688.86.688 2.176 0 1.003-.401 1.804a4 4 0 0 1-1.145 1.345q-.716.545-1.747.859a8 8 0 0 1-2.204.286q-1.575 0-2.863-.43a24 24 0 0 1-2.262-.944v-2.118zm11.766-11.623h1.432V12.58l2.204-.372v2.777h5.582v.63h-5.582V25.92q0 1.689.487 2.462.486.744 1.546.744.944 0 2.089-.573a5.65 5.65 0 0 0 1.976-1.66l.143.086q-1.088 1.431-2.491 2.29-1.403.83-2.719.83-1.518 0-2.377-1.116t-.858-3.092V15.615h-1.432zm11.188-3.55q0-.658.429-1.06.43-.4 1.145-.4.687 0 1.088.4.429.402.429 1.06t-.429 1.06q-.4.4-1.116.4t-1.146-.4q-.4-.402-.4-1.06m.458 5.268q0-.86-.201-1.203-.171-.343-.687-.343v-.172h3.092V28.21q0 .858.172 1.202.2.345.715.344v.171h-3.979v-.171q.516 0 .687-.344.201-.344.201-1.202zm12.396-1.317q-1.089 0-1.976.486a4.5 4.5 0 0 0-1.517 1.375q-.63.858-.973 2.118-.344 1.26-.344 2.805 0 1.575.372 2.892.372 1.288 1.031 2.204a5.2 5.2 0 0 0 1.632 1.403q.945.486 2.118.487.945 0 1.804-.315a5.7 5.7 0 0 0 1.546-.916q.716-.601 1.202-1.432a6 6 0 0 0 .744-1.832l.172.029a7.7 7.7 0 0 1-.887 2.233 6.5 6.5 0 0 1-1.403 1.717 6.3 6.3 0 0 1-1.832 1.088 6.2 6.2 0 0 1-2.176.372q-1.432 0-2.662-.572a6.3 6.3 0 0 1-2.09-1.603q-.86-1.031-1.374-2.434-.487-1.403-.487-3.063 0-1.689.487-3.063.515-1.403 1.402-2.405a6.2 6.2 0 0 1 2.148-1.574 6.5 6.5 0 0 1 2.719-.573q1.517 0 2.834.601 1.317.602 2.405 1.775v2.29h-.172q-.887-2.09-2.032-3.091t-2.691-1.002m17.864-5.325q-.744 0-.83.601-.057.6.429 1.288l4.466 6.613 4.953-6.813q.228-.315.315-.63.114-.315.057-.544a.5.5 0 0 0-.258-.372q-.228-.143-.687-.143v-.172h3.292v.172q-.486 0-.973.544-.486.543-1.031 1.317l-5.238 7.243 6.212 9.16q.344.488.83.974.486.458 1.145.458v.171h-5.21v-.171q.801 0 .887-.601.087-.601-.4-1.289l-4.839-7.1-5.21 7.3a2.6 2.6 0 0 0-.343.63q-.115.287-.086.544a.6.6 0 0 0 .286.373q.23.143.687.143v.171h-3.292v-.171q.487 0 .973-.544.487-.544 1.06-1.317l5.525-7.73-5.869-8.674a6.3 6.3 0 0 0-.83-.944 1.57 1.57 0 0 0-1.145-.487v-.172h5.124z"/></svg>
